X:179
T:Golden Eagle Hornpipe
C:Traditional
N:
R:bluegrass
L:1/8
Q:1/4=215
M:4/4
K:G
z6 BA |: "G"GB, DG BD GB | dG Bd gb ag | "D"fe d^c =cB AF | "G"GB AG "D"FD BA | 
"G"GB, DG BD GB | dG Bd gb ag | "D"fe d^c =cB AF |1 G2 B2 G4 :|2 G2 B2 G2 bb | 
"B"bB ^df ba gf | "E"e^d ef gf g^g | "A"aA ^ce ag fe | "D"ed d^c d2 ab | "C"c'a fd "D"^cd ef | 
"G"gf ga "E"bg ag | "A"fA ce "D"dF BA :| "G"G2 B2 G4 | 


